X:7305
T:Humour's of Boston Hornpipe
M:2/4
L:1/16
K:Bb
FE|DFGA B2B2|ABcd e2e2|dfdB cecA|cBAG F2FE|!
DFGA B2B2|ABcd e2e2|dfdB cecA|B2BA B2:|!
|:de|fdfd b2ag|fedc B2cd|efgf edcB|ABcA F2FE|!
DFBD EGcB|ABcd egfe|dfdB cecA|B2BA B2:|!


